src/components/stable/gux-icon/icons/user-interactions-disable.svg

<svg viewBox="0 0 16 16" xmlns="http://www.w3.org/2000/svg"><g clip-path="url(#clip0_335_26)"><path d="M13.0099 6.57C12.8199 6.2 12.3699 6.06 11.9999 6.25C11.6299 6.44 11.4899 6.89 11.6799 7.26C11.9999 7.88 11.8899 8.64 11.3899 9.13C11.0999 9.42 11.0999 9.9 11.3899 10.19C11.5399 10.34 11.7299 10.41 11.9199 10.41C12.1099 10.41 12.2999 10.34 12.4499 10.19C13.4199 9.23 13.6399 7.77 13.0099 6.57Z"/><path d="M13.7999 4.41C13.4699 4.66 13.3999 5.13 13.6499 5.46C14.9099 7.13 14.7399 9.51 13.2499 11C12.9599 11.29 12.9599 11.77 13.2499 12.06C13.3999 12.21 13.5899 12.28 13.7799 12.28C13.9699 12.28 14.1599 12.21 14.3099 12.06C16.3199 10.05 16.5499 6.83 14.8399 4.56C14.6099 4.23 14.1399 4.16 13.7999 4.41Z"/><path d="M15.7799 0.220002C15.4899 -0.0699975 15.0099 -0.0699975 14.7199 0.220002L9.97992 4.96C9.97992 4.89 9.99992 4.82 9.99992 4.75C9.99992 2.54 8.20992 0.750002 5.99992 0.750002C3.78992 0.750002 1.99992 2.54 1.99992 4.75C1.99992 6.96 3.78992 8.75 5.99992 8.75C6.06992 8.75 6.13992 8.73 6.20992 8.73L5.04992 9.88H4.00992C2.47992 9.88 1.13992 10.91 0.73992 12.39L0.0299199 15.05C-0.0600801 15.38 0.0899199 15.72 0.37992 15.89C0.48992 15.96 0.61992 16 0.74992 16C0.93992 16 1.13992 15.92 1.27992 15.78L15.7799 1.28C16.0699 0.990002 16.0699 0.510002 15.7799 0.220002ZM3.49992 4.75C3.49992 3.37 4.61992 2.25 5.99992 2.25C7.37992 2.25 8.49992 3.37 8.49992 4.75C8.49992 6.13 7.37992 7.25 5.99992 7.25C4.61992 7.25 3.49992 6.13 3.49992 4.75ZM2.19992 12.74C2.37992 12.12 2.86992 11.64 3.47992 11.46L2.19992 12.74Z"/><path d="M11.2999 12.39C10.9699 11.15 9.97992 10.21 8.71992 9.95C8.31992 9.87 7.91992 10.12 7.82992 10.53C7.74992 10.94 8.00992 11.33 8.40992 11.42C9.10992 11.57 9.65992 12.09 9.84992 12.78L10.5599 15.44C10.6499 15.78 10.9499 16 11.2799 16C11.3399 16 11.4099 15.99 11.4699 15.97C11.8699 15.86 12.1099 15.45 11.9999 15.05L11.2999 12.39Z"/></g><defs><clipPath><rect/></clipPath></defs></svg>

<svg xmlns="http://www.w3.org/2000/svg" xmlns:xlink="http://www.w3.org/1999/xlink" x="0px" y="0px" viewBox="0 0 16 16" xml:space="preserve"><path d="M13.01,6.57C12.82,6.2,12.37,6.06,12,6.25c-0.37,0.19-0.51,0.64-0.32,1.01c0.32,0.62,0.21,1.38-0.29,1.87
		c-0.29,0.29-0.29,0.77,0,1.06c0.15,0.15,0.34,0.22,0.53,0.22s0.38-0.07,0.53-0.22C13.42,9.23,13.64,7.77,13.01,6.57z"/><path d="M13.8,4.41c-0.33,0.25-0.4,0.72-0.15,1.05c1.26,1.67,1.09,4.05-0.4,5.54c-0.29,0.29-0.29,0.77,0,1.06
		c0.15,0.15,0.34,0.22,0.53,0.22s0.38-0.07,0.53-0.22c2.01-2.01,2.24-5.23,0.53-7.5C14.61,4.23,14.14,4.16,13.8,4.41z"/><path d="M15.78,0.22c-0.29-0.29-0.77-0.29-1.06,0L9.98,4.96C9.98,4.89,10,4.82,10,4.75c0-2.21-1.79-4-4-4s-4,1.79-4,4
		s1.79,4,4,4c0.07,0,0.14-0.02,0.21-0.02L5.05,9.88H4.01c-1.53,0-2.87,1.03-3.27,2.51l-0.71,2.66c-0.09,0.33,0.06,0.67,0.35,0.84
		C0.49,15.96,0.62,16,0.75,16c0.19,0,0.39-0.08,0.53-0.22l14.5-14.5C16.07,0.99,16.07,0.51,15.78,0.22z M3.5,4.75
		c0-1.38,1.12-2.5,2.5-2.5s2.5,1.12,2.5,2.5S7.38,7.25,6,7.25S3.5,6.13,3.5,4.75z M2.2,12.74c0.18-0.62,0.67-1.1,1.28-1.28
		L2.2,12.74z"/><path d="M11.3,12.39c-0.33-1.24-1.32-2.18-2.58-2.44c-0.4-0.08-0.8,0.17-0.89,0.58c-0.08,0.41,0.18,0.8,0.58,0.89
		c0.7,0.15,1.25,0.67,1.44,1.36l0.71,2.66c0.09,0.34,0.39,0.56,0.72,0.56c0.06,0,0.13-0.01,0.19-0.03c0.4-0.11,0.64-0.52,0.53-0.92
		L11.3,12.39z"/></svg>
